packages/assets/static/images/icons/public-transportation.svg

<svg width="24" height="24" viewBox="0 0 24 24" xmlns="http://www.w3.org/2000/svg">
<path d="M22.7218 14.5732C22.4893 14.5732 22.2811 14.6791 22.1433 14.846V13.4304C22.1433 12.3522 21.2658 11.4747 20.1877 11.4747H14.5599C13.4818 11.4747 12.6043 12.3522 12.6043 13.4304V14.8441C12.4664 14.6791 12.2593 14.5732 12.0277 14.5732C11.6133 14.5732 11.2777 14.9088 11.2777 15.3232V16.5288C11.2777 16.9432 11.6133 17.2788 12.0277 17.2788C12.2593 17.2788 12.4664 17.1738 12.6043 17.0079V20.666C12.6043 20.7307 12.6136 20.7935 12.6286 20.8535C12.6127 20.9135 12.6043 20.9763 12.6043 21.041V22.2466C12.6043 22.8822 13.1208 23.3988 13.7564 23.3988H14.9621C15.5977 23.3988 16.1143 22.8822 16.1143 22.2466V21.416H18.6343V22.2466C18.6343 22.8822 19.1508 23.3988 19.7864 23.3988H20.9921C21.6277 23.3988 22.1443 22.8822 22.1443 22.2466V21.041C22.1443 20.9763 22.1349 20.9135 22.1199 20.8535C22.1358 20.7935 22.1443 20.7307 22.1443 20.666C22.1443 20.6538 22.1443 20.6407 22.1443 20.6285V17.006C22.2821 17.1729 22.4902 17.2788 22.7227 17.2788C23.1371 17.2788 23.4727 16.9432 23.4727 16.5288V15.3232C23.4727 14.9088 23.1361 14.5732 22.7218 14.5732ZM14.1043 13.4304C14.1043 13.1791 14.3086 12.9747 14.5599 12.9747H20.1877C20.4389 12.9747 20.6433 13.1791 20.6433 13.4304V15.9138H14.1043V13.4304ZM14.6143 21.8988H14.1043V21.416H14.6143V21.8988ZM14.1043 19.916V17.4138H20.6433V19.916H14.1043ZM20.6443 21.8988H20.1343V21.416H20.6443V21.8988Z"/>
<path d="M2.48395 11.3988C1.40582 11.3988 0.52832 12.2763 0.52832 13.3544V19.7875C0.52832 20.816 1.32707 21.6597 2.33676 21.7357L1.88488 22.3385C1.63645 22.6694 1.70301 23.14 2.03488 23.3885C2.16988 23.4897 2.32738 23.5385 2.48488 23.5385C2.7127 23.5385 2.9377 23.4354 3.08582 23.2385L4.20801 21.7432H6.39238L7.51457 23.2385C7.66176 23.4344 7.88676 23.5385 8.11551 23.5385C8.27207 23.5385 8.43051 23.4897 8.56551 23.3885C8.89645 23.14 8.96395 22.6694 8.71551 22.3385L8.26363 21.7357C9.27332 21.6597 10.0721 20.816 10.0721 19.7875V13.3544C10.0721 12.2763 9.19457 11.3988 8.11645 11.3988H2.48395ZM2.02832 13.3544C2.02832 13.1032 2.2327 12.8988 2.48395 12.8988H4.54832V16.2232H2.02832V13.3544ZM8.56832 19.7875C8.56832 20.0388 8.36395 20.2432 8.1127 20.2432H2.48395C2.2327 20.2432 2.02832 20.0388 2.02832 19.7875V17.7232H8.56832V19.7875ZM8.56832 16.2232H6.04832V12.8988H8.1127C8.36395 12.8988 8.56832 13.1032 8.56832 13.3544V16.2232Z"/>
<path d="M3.83957 9.82379C4.28207 9.82379 4.46957 9.93254 4.7527 10.0975C5.11832 10.3104 5.57207 10.5738 6.41957 10.5738C7.26707 10.5738 7.72176 10.3094 8.08645 10.0975C8.36957 9.93254 8.55707 9.82379 8.99957 9.82379C9.44207 9.82379 9.62957 9.93254 9.91269 10.0975C10.2783 10.3104 10.7321 10.5738 11.5796 10.5738C12.4271 10.5738 12.8818 10.3094 13.2464 10.0975C13.5296 9.93254 13.7171 9.82379 14.1596 9.82379C14.6021 9.82379 14.7896 9.93254 15.0727 10.0975C15.4383 10.3104 15.8921 10.5738 16.7396 10.5738C17.5871 10.5738 18.0418 10.3094 18.4064 10.0975C18.6896 9.93254 18.8771 9.82379 19.3196 9.82379C19.7339 9.82379 20.0696 9.48816 20.0696 9.07379C20.0696 8.65941 19.7339 8.32379 19.3196 8.32379C18.4721 8.32379 18.0183 8.58816 17.6527 8.80004C17.5318 8.87035 17.4286 8.93035 17.3161 8.97535C17.4136 8.65848 17.4633 8.33316 17.4633 8.00129V6.61004C17.4633 6.10473 17.1408 5.65754 16.6608 5.49629L16.1921 5.33973V2.90973C16.1921 2.26191 15.6652 1.73504 15.0174 1.73504H12.3718V1.21191C12.3718 0.797539 12.0361 0.461914 11.6218 0.461914C11.2074 0.461914 10.8718 0.797539 10.8718 1.21191V1.73504H8.22801C7.5802 1.73504 7.05332 2.26191 7.05332 2.90973V5.33973L6.58363 5.49629C6.1027 5.65566 5.7802 6.10379 5.7802 6.61004V8.00129C5.7802 8.34535 5.83363 8.68191 5.93863 9.0091C5.78488 8.96129 5.66019 8.88816 5.50644 8.7991C5.14082 8.58629 4.68707 8.32285 3.83957 8.32285C3.4252 8.32285 3.08957 8.65848 3.08957 9.07285C3.08957 9.48723 3.4252 9.82379 3.83957 9.82379ZM15.9633 6.84629V8.00223C15.9633 8.26848 15.9052 8.52441 15.788 8.77754C15.4289 8.56941 14.9771 8.32379 14.1596 8.32379C13.3421 8.32379 12.8583 8.58816 12.4927 8.80004C12.4505 8.82535 12.4102 8.84879 12.3708 8.87035C12.3718 8.86379 12.3718 8.85723 12.3718 8.85066V5.6491L15.9633 6.84629ZM8.55332 3.23598H14.6921V4.84098L11.8758 3.90254C11.7961 3.87348 11.7108 3.85754 11.6218 3.85754C11.5318 3.85754 11.4483 3.87348 11.3696 3.9016L8.55332 4.84004V3.23598ZM7.2802 6.84629L10.8718 5.6491V8.85066C10.8718 8.87316 10.8736 8.89473 10.8755 8.91723C10.808 8.88254 10.7405 8.8441 10.6674 8.80098C10.3018 8.58816 9.84801 8.32473 9.00051 8.32473C8.23269 8.32473 7.78832 8.54129 7.43957 8.74004C7.33457 8.50004 7.28113 8.25629 7.28113 8.00316V6.84723L7.2802 6.84629Z"/>
</svg>

<svg viewBox="0 0 24 24" xmlns="http://www.w3.org/2000/svg" aria-hidden="true" fill="currentColor" height="24px" width="24px"><path d="M22.722 14.573a.75.75 0 0 0-.579.273V13.43a1.96 1.96 0 0 0-1.955-1.955H14.56a1.96 1.96 0 0 0-1.956 1.955v1.414a.75.75 0 0 0-1.326.48v1.205a.75.75 0 0 0 1.326.479v3.658q.001.098.025.188a.7.7 0 0 0-.025.187v1.206c0 .635.517 1.152 1.152 1.152h1.206c.636 0 1.152-.517 1.152-1.152v-.831h2.52v.83c0 .636.517 1.153 1.152 1.153h1.206c.636 0 1.152-.517 1.152-1.152V21.04a.8.8 0 0 0-.024-.187.7.7 0 0 0 .024-.188v-3.66a.75.75 0 0 0 1.328-.477v-1.206a.75.75 0 0 0-.75-.75m-8.618-1.143c0-.25.205-.455.456-.455h5.628c.25 0 .455.204.455.455v2.484h-6.539zm.51 8.469h-.51v-.483h.51zm-.51-1.983v-2.502h6.54v2.502zm6.54 1.983h-.51v-.483h.51zm-18.16-10.5a1.96 1.96 0 0 0-1.956 1.955v6.434c0 1.028.8 1.872 1.809 1.948l-.452.602a.75.75 0 1 0 1.2.9l1.123-1.495h2.184l1.123 1.495a.75.75 0 0 0 1.2-.9l-.451-.602a1.957 1.957 0 0 0 1.808-1.948v-6.434A1.96 1.96 0 0 0 8.116 11.4zm-.456 1.955c0-.25.205-.455.456-.455h2.064v3.324h-2.52zm6.54 6.434a.456.456 0 0 1-.455.455H2.484a.456.456 0 0 1-.456-.455v-2.065h6.54zm0-3.565h-2.52V12.9h2.065c.251 0 .455.204.455.455zm-4.728-6.4c.442 0 .63.11.913.274.365.213.82.477 1.667.477s1.302-.265 1.666-.476c.284-.165.471-.274.914-.274.442 0 .63.109.913.274.365.212.82.476 1.667.476s1.302-.265 1.666-.476c.284-.165.471-.274.914-.274.442 0 .63.109.913.274.365.212.82.476 1.667.476s1.302-.265 1.666-.476c.284-.165.471-.274.914-.274a.75.75 0 1 0 0-1.5c-.848 0-1.302.264-1.667.476-.121.07-.224.13-.337.175q.147-.476.147-.974V6.61c0-.505-.322-.952-.802-1.114l-.469-.156V2.91c0-.648-.527-1.175-1.175-1.175h-2.645v-.523a.75.75 0 1 0-1.5 0v.523H8.228c-.648 0-1.175.527-1.175 1.175v2.43l-.47.156c-.48.16-.803.608-.803 1.114v1.391q0 .516.159 1.008c-.154-.048-.279-.12-.433-.21-.365-.213-.819-.476-1.666-.476a.75.75 0 1 0 0 1.5m12.123-2.977v1.156q0 .397-.175.776c-.36-.209-.81-.454-1.628-.454s-1.302.264-1.667.476l-.122.07V5.65zm-7.41-3.61h6.14v1.605l-2.817-.938a.74.74 0 0 0-.506-.001l-2.817.938zM7.28 6.846l3.592-1.197v3.202q0 .033.004.066a4 4 0 0 1-.209-.116c-.365-.213-.819-.476-1.666-.476-.768 0-1.213.216-1.561.415a1.8 1.8 0 0 1-.159-.737V6.847"/></svg>
